X: 21335
T: Kerfunten, The
R: jig
M: 6/8
K: Gmajor
~B3 BAG|Bdd efg|dBd edB|~A3 DGA|
~B3 BAG|Bdd efg|dBd edB|1 AGF G2A:|2 AGF GBd||
~g3 gab|efe edB|~g3 gab|bag a2d|
~g3 gab|efe edB|dBd edB|1 AGF GBd:|2 AGF G2c||

